Origami/64x64/apps/fceux.svg

<svg width="64" height="64" version="1" xmlns="http://www.w3.org/2000/svg">
 <path d="m59.766247 29.026441c-0.209998 0.513995-0.549995 0.979991-1.06999 1.279988l-40.429624 23.343783c-1.244989 0.717993-2.824974 0.295997-3.543367-0.947991l-10.374904-17.969833c-0.048799-0.084-0.078799-0.173999-0.1171989-0.261998-0.2929973 0.715994-0.3013972 1.537986 0.1171989 2.261979l10.374904 17.969833c0.718393 1.243988 2.298378 1.665985 3.542967 0.947991l40.429624-23.343783c1.157989-0.667993 1.595985-2.08398 1.06999-3.279969z" style="opacity:.2"/>
 <rect transform="matrix(.8660254 -.5 .5 .8660254 0 0)" x="-14.1" y="30.53" width="51.876" height="25.938" rx="2.594" ry="2.594" style="fill:#4f4f4f"/>
 <path d="m14.793865 35.750607c-0.671674 0.387797-0.900232 1.240729-0.512435 1.912423l1.399987 2.424777-2.424778 1.399987c-0.671794 0.389996-0.900391 1.241988-0.512595 1.913982l1.399987 2.424778c0.387796 0.671673 1.240728 0.900231 1.912422 0.512435l2.424778-1.399987 1.399987 2.424777c0.387796 0.671694 1.240728 0.900232 1.912422 0.512436l2.424777-1.399987c0.671674-0.387797 0.900232-1.240729 0.512435-1.912423l-1.399987-2.424777 2.424778-1.399987c0.671674-0.387796 0.900232-1.240729 0.512435-1.912422l-1.399987-2.424778c-0.387796-0.671673-1.240728-0.900231-1.912422-0.512435l-2.424777 1.399987-1.399987-2.424777c-0.387797-0.671674-1.240729-0.900232-1.912423-0.512436l-2.424777 1.399987z" style="opacity:.2"/>
 <path d="m14.793865 34.750397c-0.671674 0.387796-0.900232 1.240728-0.512435 1.912422l1.399987 2.424778-2.424778 1.399987c-0.671674 0.387796-0.900231 1.240728-0.512435 1.912422l1.399987 2.424777c0.387796 0.671674 1.240728 0.900232 1.912422 0.512435l2.424778-1.399987 1.399987 2.424778c0.387796 0.671694 1.240728 0.900232 1.912422 0.512435l2.424777-1.399987c0.671674-0.387796 0.900232-1.240728 0.512435-1.912422l-1.399987-2.424777 2.424778-1.399987c0.671674-0.387797 0.900232-1.240729 0.512435-1.912423l-1.399987-2.424777c-0.387796-0.671674-1.240728-0.900232-1.912422-0.512435l-2.423978 1.401987-1.399586-2.423978c-0.387797-0.671994-1.240589-0.901991-1.912383-0.513995l-2.424777 1.399987z" style="fill:#c6c6c6"/>
 <g transform="matrix(1.7320439 -.9999907 .9999907 1.7320439 -8.983914 21.768737)" style="opacity:.2">
  <circle cx="24.5" cy="13.5" r="1.5"/>
  <circle cx="20.5" cy="13.5" r="1.5"/>
  <circle cx="24.5" cy="17.5" r="1.5"/>
  <circle cx="20.5" cy="17.5" r="1.5"/>
 </g>
 <g transform="matrix(1.7320439 -.9999907 .9999907 1.7320439 -8.983914 20.766527)">
  <circle cx="24.5" cy="13.5" r="1.5" style="fill:#ef5646"/>
  <circle cx="20.5" cy="13.5" r="1.5" style="fill:#ef5646"/>
  <circle cx="24.5" cy="17.5" r="1.5" style="fill:#eda836"/>
  <circle cx="20.5" cy="17.5" r="1.5" style="fill:#eda836"/>
 </g>
 <path d="m47.083984 8.4960938c-0.12503-0.0026434-0.251454 0.0038313-0.376953 0.0195312-0.333997 0.042-0.668471 0.1485267-0.980469 0.328125l-40.429687 23.34375c-0.9876366 0.570839-1.4414939 1.682267-1.2304688 2.738281 0.1369309-0.70384 0.5562015-1.348565 1.2304688-1.738281l40.429687-23.34375c0.311998-0.1795983 0.646472-0.286125 0.980469-0.328125 1.003991-0.1255988 2.024458 0.3439524 2.564453 1.277344l10.373047 17.96875c0.141709 0.245447 0.219605 0.503646 0.269531 0.763672 0.120397-0.58365 0.054284-1.202806-0.269531-1.763672l-10.373047-17.96875c-0.472495-0.8167174-1.312289-1.2783717-2.1875-1.296875z" style="fill:#ffffff;opacity:.1"/>
</svg>

<svg xmlns="http://www.w3.org/2000/svg" width="64" height="64" version="1">
 <path style="opacity:0.2" d="m 59.766247,29.026441 c -0.209998,0.513995 -0.549995,0.979991 -1.06999,1.279988 L 18.266633,53.650212 c -1.244989,0.717993 -2.824974,0.295997 -3.543367,-0.947991 L 4.348362,34.732388 C 4.299563,34.648388 4.269563,34.558389 4.2311631,34.47039 3.9381658,35.186384 3.9297659,36.008376 4.348362,36.732369 l 10.374904,17.969833 c 0.718393,1.243988 2.298378,1.665985 3.542967,0.947991 L 58.695857,32.30641 c 1.157989,-0.667993 1.595985,-2.08398 1.06999,-3.279969 z"/>
 <rect style="fill:#4f4f4f" width="51.876" height="25.938" x="-14.1" y="30.53" rx="2.594" ry="2.594" transform="matrix(0.8660254,-0.5,0.5,0.8660254,0,0)"/>
 <path style="opacity:0.2" d="m 14.793865,35.750607 c -0.671674,0.387797 -0.900232,1.240729 -0.512435,1.912423 l 1.399987,2.424777 -2.424778,1.399987 c -0.671794,0.389996 -0.900391,1.241988 -0.512595,1.913982 l 1.399987,2.424778 c 0.387796,0.671673 1.240728,0.900231 1.912422,0.512435 l 2.424778,-1.399987 1.399987,2.424777 c 0.387796,0.671694 1.240728,0.900232 1.912422,0.512436 l 2.424777,-1.399987 c 0.671674,-0.387797 0.900232,-1.240729 0.512435,-1.912423 l -1.399987,-2.424777 2.424778,-1.399987 c 0.671674,-0.387796 0.900232,-1.240729 0.512435,-1.912422 L 24.868091,36.401841 C 24.480295,35.730168 23.627363,35.50161 22.955669,35.889406 l -2.424777,1.399987 -1.399987,-2.424777 C 18.743108,34.192942 17.890176,33.964384 17.218482,34.35218 l -2.424777,1.399987 z"/>
 <path style="fill:#c6c6c6" d="m 14.793865,34.750397 c -0.671674,0.387796 -0.900232,1.240728 -0.512435,1.912422 l 1.399987,2.424778 -2.424778,1.399987 c -0.671674,0.387796 -0.900231,1.240728 -0.512435,1.912422 l 1.399987,2.424777 c 0.387796,0.671674 1.240728,0.900232 1.912422,0.512435 l 2.424778,-1.399987 1.399987,2.424778 c 0.387796,0.671694 1.240728,0.900232 1.912422,0.512435 l 2.424777,-1.399987 c 0.671674,-0.387796 0.900232,-1.240728 0.512435,-1.912422 l -1.399987,-2.424777 2.424778,-1.399987 c 0.671674,-0.387797 0.900232,-1.240729 0.512435,-1.912423 l -1.399987,-2.424777 c -0.387796,-0.671674 -1.240728,-0.900232 -1.912422,-0.512435 l -2.423978,1.401987 -1.399586,-2.423978 C 18.744468,33.193651 17.891676,32.963654 17.219882,33.35165 l -2.424777,1.399987 z"/>
 <g style="opacity:0.2" transform="matrix(1.7320439,-0.9999907,0.9999907,1.7320439,-8.983914,21.768737)">
  <circle cx="24.5" cy="13.5" r="1.5"/>
  <circle cx="20.5" cy="13.5" r="1.5"/>
  <circle cx="24.5" cy="17.5" r="1.5"/>
  <circle cx="20.5" cy="17.5" r="1.5"/>
 </g>
 <g transform="matrix(1.7320439,-0.9999907,0.9999907,1.7320439,-8.983914,20.766527)">
  <circle style="fill:#ef5646" cx="24.5" cy="13.5" r="1.5"/>
  <circle style="fill:#ef5646" cx="20.5" cy="13.5" r="1.5"/>
  <circle style="fill:#eda836" cx="24.5" cy="17.5" r="1.5"/>
  <circle style="fill:#eda836" cx="20.5" cy="17.5" r="1.5"/>
 </g>
 <path style="opacity:0.1;fill:#ffffff" d="M 47.083984 8.4960938 C 46.958954 8.4934504 46.83253 8.4999251 46.707031 8.515625 C 46.373034 8.557625 46.03856 8.6641517 45.726562 8.84375 L 5.296875 32.1875 C 4.3092384 32.758339 3.8553811 33.869767 4.0664062 34.925781 C 4.2033371 34.221941 4.6226077 33.577216 5.296875 33.1875 L 45.726562 9.84375 C 46.03856 9.6641517 46.373034 9.557625 46.707031 9.515625 C 47.711022 9.3900262 48.731489 9.8595774 49.271484 10.792969 L 59.644531 28.761719 C 59.78624 29.007166 59.864136 29.265365 59.914062 29.525391 C 60.034459 28.941741 59.968346 28.322585 59.644531 27.761719 L 49.271484 9.7929688 C 48.798989 8.9762514 47.959195 8.5145971 47.083984 8.4960938 z"/>
</svg>
